!!!COM: Joplin, Scott
!!!CDT: 1868/11/24/-1917/04/01/
!!!PDT: 1914///
!! ODT is estimate:
!!!ODT: 1914///
!!!OTL: Magnetic Rag
**kern	**kern	**dynam
*staff2	*staff1	*staff1/2
*Ipiano	*Ipiano	*Ipiano
*>[I,A,A1,A,A2,B,B1,B,B2,C,C1,C,C2,D,D1,D,D2,E,E1,E,E2]	*>[I,A,A1,A,A2,B,B1,B,B2,C,C1,C,C2,D,D1,D,D2,E,E1,E,E2]	*>[I,A,A1,A,A2,B,B1,B,B2,C,C1,C,C2,D,D1,D,D2,E,E1,E,E2]
*>norep[I,A,A2,B,B2,C,C2,D,D2,E,E2]	*>norep[I,A,A2,B,B2,C,C2,D,D2,E,E2]	*>norep[I,A,A2,B,B2,C,C2,D,D2,E,E2]
*>I	*>I	*>I
*clefF4	*clefG2	*clefG2
*k[b-e-]	*k[b-e-]	*k[b-e-]
*met(C)	*met(C)	*met(C)
*M4/4	*M4/4	*M4/4
*MM112	*MM112	*MM112
=1-	=1-	=1-
8F	8f	f
4En	4en	.
[8E-	[8e-	.
2E-]	2e-]	.
=2	=2	=2
8F	8f	.
4E-	4e-	.
[8D	[8d	.
2D]	2d]	.
=3	=3	=3
8FL	8fL	.
8F#	8f#	.
8G	8g	.
[8G#J	[8g#J	.
8G#L]	8g#L]	.
8A	8a	.
8B-	8b-	.
8BnJ	8bnJ	.
=4	=4	=4
4c	4cc	.
4r	4r	.
4FF^ 4F^	4f^ 4a^ 4cc^ 4ff^	.
4r	4r	.
=5!|:	=5!|:	=5!|:
*>A	*>A	*>A
*^	*^	*
4r	2BB-	(8dL	2d	.
.	.	8b-	.	mf
4F 4B-	.	8g	.	.
.	.	8fJ	.	.
4r	2C	8e-	(2e-)	.
.	.	4cc	.	.
4F 4A	.	.	.	.
.	.	8cc#	.	.
*v	*v	*	*	*
=6	=6	=6	=6
4BB-	8ddL)	2d	.
.	8f	.	.
4F 4B-	8b-	.	.
.	8dJ	.	.
4BB-	8g	8c#	.
.	4.f	4.d	.
4F 4B-	.	.	.
=7	=7	=7	=7
4AA	8e- 8f	4r	.
.	4e- 4f	.	.
4F 4A	.	4r	.
.	[8e- [8f	.	.
4FF	8fL]	4e-]	.
.	8gJ	.	.
4F 4A	4e- 4f	4r	.
=8	=8	=8	=8
4BB-	8d 8f	4r	.
.	4d 4f	.	.
4F 4B-	.	4r	.
.	[8d [8f	.	.
4FF	8fL]	4d]	.
.	8gJ	.	.
4F 4B-	4d 4f	4r	.
=9	=9	=9	=9
*^	*	*	*
4r	2BB-	(8dL	2d	.
.	.	8b-	.	.
4F 4B-	.	8g	.	.
.	.	8fJ	.	.
4r	2C	8e-	(2e-)	.
.	.	4cc	.	.
4F 4A	.	.	.	.
.	.	8cc#	.	.
*v	*v	*	*	*
=10	=10	=10	=10
4BB-	8ddL	2d)	<
.	8f	.	.
4F 4B-	8b-	.	.
.	8ddJ	.	.
4BB- 4B-	8gg	2dd	.
.	4.bb-	.	.
4GG 4G	.	.	.
=11	=11	=11	=11
4FF# 4F#	4r	8aaL	.
.	.	8ccc	.
4F# 4c 4d	4r	8ddd	.
.	.	8ff# [8eee-J	.
4DD 4D	8eee-L]	4ff#	.
.	8dddJ	.	.
4F# 4c 4d	4aa	4ff#	.
=12	=12	=12	=12
4GG 4G	8cccL	[2gg	f
.	8bb-	.	.
4G 4B- 4d	8aa	.	.
.	[8bb-J	.	.
4DD 4D	4.bb-]	4.gg]	.
4G 4B- 4d	.	.	.
.	8r	[8ee- [8bb-	.
=13	=13	=13	=13
4GG 4G	4ee-] 4bb-]	8ee-L	.
.	.	8b-	.
4EE- 4E-	4ee- 4gg	8ee-	.
.	.	8gJ	.
4DD 4D	8b-	8b-	.
.	4r	4dd 4ff	.
4F 4B- 4d	.	.	.
.	8f	8f	.
=14	=14	=14	=14
4FF 4F	4ee-	8ccL	.
.	.	8g	.
4F 4A 4e-	8ee-L	8a	.
.	[8ddJ	[8b-J	.
4BB- 4B-	8b-] 8ddL]	4r	.
.	8fJ	.	.
4AA- 4A-	4r	4dd 4ff	.
=15	=15	=15	=15
4GG 4G	4bb-	8ee-L	.
.	.	8b-	.
4EE- 4E-	4gg	8ee-	.
.	.	8gJ	.
4DD 4D	8b-	8b-	.
.	4r	4dd 4ff	.
4F 4B- 4d	.	.	.
.	8f	8f	.
=16	=16	=16	=16
4FF 4F	4ee-	8ccL	.
.	.	8g	.
4F 4A 4e-	8ee-L	8a	.
.	[8ddJ	[8b-J	.
4BB- 4B-	4r	4.b-] 4.dd]	.
4FF 4F	4r	.	.
.	.	[8ee- 8bb-	.
=17	=17	=17	=17
4GG 4G	4bb-	8ee-L]	.
.	.	8b-	.
4EE- 4E-	4gg	8ee-	.
.	.	8gJ	.
4DD 4D	8b-	8b-	.
.	4r	4dd 4ff	.
4F 4B- 4d	.	.	.
.	8f	8f	.
=18	=18	=18	=18
4FF 4F	4ee-	8ccL	.
.	.	8g	.
4F 4A 4e-	8ee-L	8a	.
.	[8ddJ	[8b-J	.
4BB- 4B-	8b-] 8ddL]	4r	.
.	8fJ	.	.
4AA- 4A-	4r	4dd 4ff	.
=19	=19	=19	=19
4GG 4G	4ee- 4bb-	8ee-L	.
.	.	8b-	.
4EE- 4E-	4ee- 4gg	8ee-	.
.	.	8gJ	.
4DD 4D	8b-	8b-	.
.	4r	4dd 4ff	.
4F 4B- 4d	.	.	.
.	8f	8f	.
=20	=20	=20	=20
*	*v	*v	*
*>A1	*>A1	*>A1
*	*^	*
4FF 4F	4ee-	8ccL	.
.	.	8g	.
4F 4A 4e-	8ee-L	8a	.
.	[8ddJ	[8b-'J	.
4BB- 4B-	8b-] 8ddL]	4r	.
.	8g	.	.
4F 4A	8f	4r	.
.	8e-J	.	.
*	*v	*v	*
=21:|!	=21:|!	=21:|!
*>A2	*>A2	*>A2
*	*^	*
4FF 4F	4ee-	8ccL	.
.	.	8g	.
4F 4A 4e-	8ee-L	8a	.
.	[8ddJ	[8b-J	.
4BB- 4B-	4r	4b-] 4dd]	.
*	*v	*v	*
=	=	=
4DD^ 4D^	4f#^ 4a^ 4dd^	.
=22!|:	=22!|:	=22!|:
*>B	*>B	*>B
4GG 4G	8b-L	mf
.	8a	.
4G 4B- 4d	8g	.
.	[8b-J	.
4DD 4D	8b-L]	.
.	8aJ	.
4G 4B- 4d	4g	.
=23	=23	=23
*	*^	*
4FF# 4F#	2r	4a	.
4F# 4c 4d	.	8gL	.
.	.	[8f#J	.
4DD 4D	2f#]	8r	.
.	.	8dd	.
4F# 4c 4d	.	4aa	.
*	*v	*v	*
=24	=24	=24
4AA 4A	8ccL	.
.	8b-	.
4F# 4c 4d	8a	.
.	[8ccJ	.
4DD 4D	8ccL]	.
.	8b-J	.
4FF# 4F#	4a	.
=25	=25	=25
*	*^	*
4GG 4G	2r	4b-	.
4G 4B- 4d	.	8aL	.
.	.	[8gJ	.
4BBB- 4BB-	8r	2g]	.
.	8dd	.	.
4DD 4D	4bb-	.	.
*	*v	*v	*
=26	=26	=26
4GG 4G	8b-L	<
.	8a	.
4G 4B- 4d	8g	.
.	8aJ	.
4DD 4D	8b-	.
.	4cc	.
4G 4B- 4d	.	.
.	8dd	.
=27	=27	=27
*	*^	*
4CC 4C	2r	4ee-	f
4G 4c 4e-	.	8ddL	.
.	.	[8ccJ	.
4EE- 4E-	8r	2cc]	.
.	8gg	.	.
4G 4c 4e-	4eee-	.	.
*	*v	*v	*
=28	=28	=28
4CC 4C	8ee-L	.
.	8dd	.
4G 4A 4e-	8cc	.
.	8b-J	.
4EE- 4E-	8a	.
.	4g	.
4G 4A 4c	.	.
.	8a	.
=29	=29	=29
4DD 4D	4f#	.
4C 4c	8aL	.
.	[8f# [8ddJ	.
4BB- 4B-	2f#] 2dd]	.
4AA 4A	.	.
=30	=30	=30
4GG 4G	8b-L	mf
.	8a	.
4G 4B- 4d	8g	.
.	[8b-J	.
4DD 4D	8b-L]	.
.	8aJ	.
4G 4B- 4d	4g	.
=31	=31	=31
*	*^	*
4FF# 4F#	4a	2r	.
4F# 4c 4d	8gL	.	.
.	[8f#J	.	.
4DD 4D	8r	2f#]	.
.	8dd	.	.
4F# 4c 4d	4aa	.	.
*	*v	*v	*
=32	=32	=32
4AA 4A	8ccL	.
.	8b-	.
4F# 4c 4d	8a	.
.	[8ccJ	.
4DD 4D	8ccL]	.
.	8b-J	.
4FF# 4F#	4a	.
=33	=33	=33
*	*^	*
4GG 4G	2r	4b-	.
4G 4B- 4d	.	8aL	.
.	.	[8gJ	.
4BBB- 4BB-	8r	2g]	.
.	8dd	.	.
4DD 4D	4bb-	.	.
*	*v	*v	*
=34	=34	=34
4GG 4G	8b-L	<
.	8a	.
4G 4B- 4d	8g	.
.	8aJ	.
4DD 4D	8b-	.
.	4cc	.
4G 4B- 4d	.	.
.	8dd	.
=35	=35	=35
*	*^	*
4CC 4C	2r	4ee-	f
4G 4c 4e-	.	8ddL	.
.	.	[8ccJ	.
4EE- 4E-	8r	2cc]	.
.	8gg	.	.
4G 4c 4e-	4eee-	.	.
*	*v	*v	*
=36	=36	=36
4DD 4D	8ddL	.
.	8cc	.
4G 4B- 4d	8b-	.
.	[8aJ	.
4DD 4D	8aL]	.
.	8cc	.
4F# 4c 4d	8b-	.
.	8aJ	.
=37	=37	=37
*>B1	*>B1	*>B1
4GG 4G	8gL	.
.	8dd	.
4G 4B- 4d	8b-	.
.	8gJ	.
4DD 4D	8f#L	.
.	8aJ	.
4F# 4c 4d	4dd	.
=38:|!	=38:|!	=38:|!
*>B2	*>B2	*>B2
*^	*	*
2r	2G 2B- 2d	4g	.
.	.	8aL	.
.	.	8b-J	.
2A 2e-	4F	[4cc	.
.	4FF^ 4F^	8.ccL]	.
.	.	(32ccLL	.
.	.	32cc#JJJ	.
*v	*v	*	*
=39!|:	=39!|:	=39!|:
*>C	*>C	*>C
4BBB- 4BB-	4dd)	mf
4DD 4D	4r	.
4EE- 4E-	8g 8cc	.
.	4b- 4cc#	.
4EEn 4En	.	.
.	[8f [8b- [8dd	.
=40	=40	=40
4FF 4F	4f] 4b-] 4dd]	.
4B-	8cc# 8ggL	.
.	[8dd [8ffJ	.
4DD 4D	8dd] 8ffL]	.
.	[8dd [8bb-J	.
4F 4B- 4d	8.dd] 8.bb-L]	.
.	(32ccnLL	.
.	32cc#JJJ	.
=41	=41	=41
4BBB- 4BB-	4dd)	.
4DD 4D	4r	.
4EE- 4E-	8g 8cc	.
.	4b- 4cc#	.
4EEn 4En	.	.
.	[8f [8b- [8dd	.
=42	=42	=42
4FF 4F	2.f] 2.b-] 2.dd]	<
8B-L	.	.
8cJ	.	.
*clefG2	*	*
8dL	.	.
8fJ	.	.
8.a-L	4b- 4dd 4ff	.
(32fLL	.	.
32f#JJJ	.	.
=43	=43	=43
*	*^	*
[4g^)	8ggL	4b- 4ee-	f
.	8bb-J	.	.
8.gL]	4r	4b- 4ee- 4gg	.
(32cLL	.	.	.
32c#JJJ	.	.	.
[4d^)	8ddL	4f 4b-	.
.	8ffJ	.	.
8.dL]	4r	4f 4b- 4dd	.
*clefF4	*	*	*
(32FLL	.	.	.
32F#JJJ	.	.	.
=44	=44	=44	=44
[4G^)	8gL	4B- 4e-	.
.	8b-J	.	.
8.GL]	4B- 4e- 4g	4r	.
(32CLL	.	.	.
32C#JJJ	.	.	.
2D^)	8dL	4F 4B-	.
.	8fJ	.	.
.	4F 4B- 4d	4r	.
*	*v	*v	*
=45	=45	=45
4EE- 4E-	8f# 8cc	mf
.	4g 4b-	.
4G 4B- 4e-	.	.
.	[8g [8b-	.
4BBB- 4BB-	2g] 2b-]	.
4G 4B- 4e-	.	.
=46	=46	=46
*	*^	*
4EE- 4E-	8dd	4.g	.
.	4cc	.	.
4G 4B- 4e-	.	.	.
.	[8b-	[8g	.
4GG 4G	8g] 8b-L]	2r	.
.	8ccJ	.	.
4EE- 4E-	4g	.	.
*	*v	*v	*
=47	=47	=47
4BBB- 4BB-	8c# 8g	.
.	4d 4f	.
4F 4B-	.	.
.	[8d [8b-	.
4FF	2d_ 2b-_	.
4F 4B-	.	.
=48	=48	=48
4BBB- 4BB-	4d] 4b-]	<
4F 4B-	8dL	.
.	8fJ	.
4DD 4D	8b-L	.
.	8cc	.
4BBBn 4BBn	8dd	.
.	8ffJ	.
=49	=49	=49
4CC 4C	8a 8ee- 8ggL	f
.	8bn	.
4F 4A 4e-	8cc	.
.	[8a [8ee- [8ffJ	.
4FF 4F	2a_ 2ee-_ 2ff_	.
4BBn 4Bn	.	.
=50	=50	=50
4C 4c	4a] 4ee-] 4ff]	.
4F 4A 4e-	8ggL	.
.	[8a [8ee- [8ffJ	.
4FF 4F	8a] 8ee-] 8ffL]	.
.	8ggJ	.
4F 4A 4e-	4a 4ee- 4ff	.
=51	=51	=51
4BB- 4B-	8b- 8dd 8ggL	.
.	8cc#	.
4F 4B- 4d	8dd	.
.	[8b- [8dd [8ffJ	.
4FF 4F	2b-_ 2dd_ 2ff_	.
4F 4B- 4d	.	.
=52	=52	=52
4DD 4D	8b-] 8dd] 8ffL]	.
.	8gg	.
4BBBn 4BBn	8g# 8dd 8ff	.
.	[8a [8ee-J	.
4CC 4C	8a] 8ee-L]	.
.	8ffJ	.
4F 4A 4e-	8.a 8.ee-L	.
.	(32ccLL	.
.	32cc#JJJ	.
=53	=53	=53
4BBB- 4BB-	4dd)	mf
4DD 4D	4r	.
4EE- 4E-	8g 8cc	.
.	4b- 4cc#	.
4EEn 4En	.	.
.	[8f [8b- [8dd	.
=54	=54	=54
4FF 4F	4f] 4b-] 4dd]	.
4B-	8cc# 8ggL	.
.	[8dd [8ffJ	.
4DD 4D	8dd] 8ffL]	.
.	[8dd [8bb-J	.
4F 4B- 4d	8.dd] 8.bb-L]	.
.	(32ccnLL	.
.	32cc#JJJ	.
=55	=55	=55
4BBB- 4BB-	4dd)	.
4DD 4D	4r	.
4EE- 4E-	8g 8cc	.
.	4b- 4cc#	.
4EEn 4En	.	.
.	[8f 8b- [8dd	.
=56	=56	=56
4FF 4F	2.f] 2.b- 2.dd]	<
8B-L	.	.
8cJ	.	.
*clefG2	*	*
(8dL	.	.
8fJ	.	.
8.a-L)	4b- 4dd 4ff	.
(32fLL	.	.
32f#JJJ	.	.
=57	=57	=57
*	*^	*
[4g^)	8ggL	4b- 4ee-	f
.	8bb-J	.	.
8.gL]	4r	4b- 4ee- 4gg	.
(32cLL	.	.	.
32c#JJJ	.	.	.
[4d^)	8ddL	4f 4b-	.
.	8ffJ	.	.
8.dL]	4f 4b- 4dd	4r	.
*clefF4	*	*	*
(32FLL	.	.	.
32F#JJJ	.	.	.
=58	=58	=58	=58
[4G^)	8gL	4B- 4e-	.
.	8b-J	.	.
8.GL]	4B- 4e- 4g	4r	.
(32CLL	.	.	.
32C#JJJ	.	.	.
2D^)	8dL	4F 4B-	.
.	8fJ	.	.
.	4F 4B- 4d	4r	.
*	*v	*v	*
=59	=59	=59
8GG	8B-	.
4AA	4c	.
[8BB-	[8d	.
8BB-L]	8dL]	.
8CJ	8cJ	.
4D	4B-	.
=60	=60	=60
8B-	8dd	.
4A	4cc	.
[8G	[8b-	.
8GL]	8b-L]	.
8FJ	8aJ	.
4En 4B- 4c#	4g	.
=61	=61	=61
4FF 4F	8b- 8dd 8ggL	.
.	8ff	.
4F 4B- 4d	8b- 8dd	.
.	[8a [8ee-J	.
4FF 4F	8a] 8ee-L]	.
.	8ff	.
4F 4A 4e-	8g	.
.	8aJ	.
=62	=62	=62
*>C1	*>C1	*>C1
4BB- 4B-	4b-	.
4F 4B- 4d	8fL	.
.	[8dd [8ffJ	.
4FF 4F	8dd] 8ffL]	.
.	8fJ	.
4F 4A 4e-	8.cc 8.ee-L	.
.	32ccLL	.
.	32cc#JJJ	.
=63:|!	=63:|!	=63:|!
*>C2	*>C2	*>C2
4BB- 4B-	2.b-	.
4FF 4F	.	.
4GG 4G	.	.
4AA 4A	4cc	.
=64	=64	=64
*k[b-e-a-d-g-]	*k[b-e-a-d-g-]	*k[b-e-a-d-g-]
*met(C)	*met(C)	*met(C)
*M4/4	*M4/4	*M4/4
4BB- 4B-	2.dd-	.
4F 4B- 4d-	.	.
4FF 4F	.	.
4F 4B- 4d-	8b-L	.
.	8ccJ	.
=65	=65	=65
4BB- 4B-	2.dd-	.
4F 4B- 4d-	.	.
4FF 4F	.	.
4F 4B- 4d-	8b-L	.
.	8ccJ	.
=66!|:	=66!|:	=66!|:
*>D	*>D	*>D
*^	*^	*
4r	2BB- 2B-	8dd-L	2dd-	mf
*	*	*v	*v	*
*	*	*^	*
.	.	8ff	.	.
4F 4B- 4d-	.	8bb-	.	.
.	.	8ddd-J	.	.
4r	2GG- 2G-	8ee-L	2ee-	.
.	.	8gg-	.	.
4G- 4B- 4e-	.	8bb-	.	.
.	.	8eee-J	.	.
=67	=67	=67	=67	=67
4FF 4F	2r	8r	4.dd-	.
.	.	[8ff [8bb- [8ddd-	.	.
4EE- 4E-	.	8ff] 8bb-] 8ddd-L]	.	.
.	.	8ff 8aan 8cccJ	8cc	.
4r	2DD- 2D-	4ff 4bb-	4b-	.
4F 4B-	.	4b-	4f	.
=68	=68	=68	=68	=68
4G-	1C	4an	1c 1e-	mf
8GnL	.	8gnL	.	<
[8AnJ	.	[8g-J	.	.
8AL]	.	8g-L]	.	.
8GnJ	.	8gnJ	.	.
4G-	.	4an	.	.
=69	=69	=69	=69	=69
4An	1E-	4cc	1e- 1g-	.
8B-L	.	8b-L	.	.
[8cJ	.	[8anJ	.	.
8cL]	.	8aL]	.	.
8B-J	.	8b-J	.	.
4An	.	4cc	.	.
*v	*v	*	*	*
*	*v	*v	*
=70	=70	=70
4A-^	4bn^	.
2An^	2cc^	.
4B-^	4dd-^	.
=71	=71	=71
4Bn^	4ddn^	.
4c^	4ee-^	.
4d-^	4een^	.
4dn^	4ff^	.
=72	=72	=72
4B- 4e-	4g-^ 4cc^ 4gg-^	.
2G- 2c	2b-^ 2cc^ 2ee-^	.
4G- 4c	4b-^ 4cc^ 4een^	.
=73	=73	=73
*^	*^	*
4c	1F	1ff	4an 4cc	ff
8e-L	.	.	8ccL	.
8d-J	.	.	8b-J	.
8cL	.	.	8anL	.
8d-J	.	.	8b-J	.
4c	.	.	4a	.
=74	=74	=74	=74	=74
4r	2BB- 2B-	8dd-L	2dd-	mf
.	.	8ff	.	<
4F 4B- 4d-	.	8bb-	.	.
.	.	8ddd-J	.	.
4r	2GG- 2G-	8ee-L	2ee-	.
.	.	8gg-	.	.
4G- 4B- 4e-	.	8bb-	.	.
.	.	8eee-J	.	.
*v	*v	*	*	*
=75	=75	=75	=75
4FF 4F	8r	4.dd-	.
.	8ff [8bb- [8ddd-	.	.
4EE- 4E-	8ff 8bb-] 8ddd-L]	.	.
.	8ff 8aan 8cccJ	8cc	.
4DD- 4D-	4ff 4bb-	4b-	.
4AAAn 4AAn	4ff 4ccc	4cc	.
*	*v	*v	*
=76	=76	=76
4BBB- 4BB-	8dd- 8ff 8ddd-L	mf
.	8cc 8ccc	.
4F 4B- 4d-	8dd- 8ddd-	.
.	[8ee- [8eee-J	.
4GG- 4G-	8ee-] 8eee-L]	.
.	8dd- 8ddd-J	.
4G- 4B- 4e-	4b- 4bb-	.
=77	=77	=77
*	*^	*
4AA- 4A-	8bb-L	4.cc 4.gg-	.
.	8aa-	.	.
4A- 4c 4g-	8gg-	.	.
.	[8ffJ	[8dd-	.
4DD- 4D-	8ffL]	4dd-]	.
.	8aa-J	.	.
4A- 4d- 4f	4ff	4dd-	.
*clefG2	*	*	*
=78	=78	=78	=78
*^	*	*	*
1cc	8a-	1ccc	8ff	.
.	4gn	.	4een	.
.	[8a-	.	[8ff	.
.	8a-L]	.	8ffL]	.
.	8b-J	.	8ggnJ	.
.	4cc	.	4aa-	.
=79	=79	=79	=79	=79
[2cc	8gn	[2ccc	8een	.
.	4b-	.	4ggn	.
.	[8a-	.	[8ff	.
4cc]	4a-]	4ccc]	4ff]	.
*v	*v	*	*	*
*clefF4	*	*	*
*^	*	*	*
4FF^ 4F^	4r	4f^ 4a-^ 4cc^ 4ff^	4r	.
*v	*v	*	*	*
*	*v	*v	*
=80	=80	=80
*>D1	*>D1	*>D1
*	*^	*
4EE- 4E-	2r	4g- 4b- 4ee- 4gg-	f
4FF 4F	.	4f 4b- 4dd- 4ff	.
4FF 4F	8aan 8cccL	4.ee-	.
.	8aa	.	.
4F 4An 4e-	8ff	.	.
.	[8ff [8bb-J	[8dd-	.
*	*v	*v	*
=81	=81	=81
4BB- 4B-	8dd-] 8ff] 8bb-L]	.
.	8ff	.
4F 4B- 4d-	8dd-	.
.	8b-J	.
4C 4c	8anL	.
.	8b-J	.
4F 4An 4e-	4cc	.
=82:|!	=82:|!	=82:|!
*>D2	*>D2	*>D2
*	*^	*
4BBBn 4BBn	8ddnL	4f 4a-	f
.	8ffJ	.	.
4CC 4C	4cc	4f 4an	.
4CC 4C	8eenL	4en 4b-	.
.	8ddn	.	.
4Gn 4B- 4c	8ee	8e 8b-L	.
.	8ffJ	[8f [8anJ	.
=83	=83	=83	=83
4FF 4F	8ffL	2f] 2an]	.
.	8ee-	.	.
4EE- 4E-	8cc	.	.
.	8anJ	.	.
4DDn 4Dn	8f	8f	.
.	4e-	4e-	.
4CC 4C	.	.	.
.	8f	8f	.
*	*v	*v	*
=84!|:	=84!|:	=84!|:
*>E	*>E	*>E
*k[b-e-]	*k[b-e-]	*k[b-e-]
*^	*^	*
4r	2BB-	8dL	2d	.
.	.	8b-	.	.
4F 4B-	.	8g	.	.
.	.	8fJ	.	.
4r	2C	8e-	2e-	.
.	.	4cc	.	.
4F 4A	.	.	.	.
.	.	8cc#	.	.
*v	*v	*	*	*
=85	=85	=85	=85
4BB-	8ddL	2d	.
.	8f	.	.
4F 4B-	8b-	.	.
.	8dJ	.	.
4BB-	8g	8c#	.
.	4.f	4.d	.
4F 4B-	.	.	.
=86	=86	=86	=86
4AA	8e- 8f	2r	.
.	4e- 4f	.	.
4F 4A	.	.	.
.	[8e- 8f	.	.
4FF	8fL	4e-]	.
.	8gJ	.	.
4F 4A	4e- 4f	4r	.
*	*v	*v	*
=87	=87	=87
*k[b-]	*k[b-]	*k[b-]
*	*^	*
4BB-	8d 8f	2r	.
.	4d 4f	.	.
4F 4B-	.	.	.
.	[8d [8f	.	.
4FF	8fL]	4d]	.
.	8gJ	.	.
4F 4B-	4d 4f	4r	.
=88	=88	=88	=88
*^	*	*	*
4r	2BB-	8dL	2d	.
.	.	8b-	.	.
4F 4B-	.	8g	.	.
.	.	8fJ	.	.
4r	2C	8e-	2e-	.
.	.	4cc	.	.
4F 4A	.	.	.	.
.	.	8cc#	.	.
*v	*v	*	*	*
=89	=89	=89	=89
4BB-	8ddL	2d	<
.	8f	.	.
4F 4B-	8b-	.	.
.	8ddJ	.	.
4BB- 4B-	8gg	2dd	.
.	4.bb-	.	.
4GG 4G	.	.	.
=90	=90	=90	=90
4FF# 4F#	2r	8aaL	.
.	.	8ccc	.
4F# 4c 4d	.	8ddd	.
.	.	[8ff# [8eee-J	.
4DD 4D	8eee-L]	4ff#]	.
.	8dddJ	.	.
4F# 4c 4d	4r	4ff# 4aa	.
=91	=91	=91	=91
4GG 4G	8cccL	[2gg	f
.	8bb-	.	.
4G 4B- 4d	8aa	.	.
.	[8bb-J	.	.
4DD 4D	2r	4.gg] 4.bb-]	.
4G 4B- 4d	.	.	.
.	.	[8ee- [8bb-	.
=92	=92	=92	=92
4GG 4G	4bb-]	8ee-L]	.
.	.	8b-	.
4EE- 4E-	4gg	8ee-	.
.	.	8gJ	.
4DD 4D	8b-	8b-	.
.	4r	4dd 4ff	.
4F 4B- 4d	.	.	.
.	8f	8f	.
=93	=93	=93	=93
4FF 4F	4ee-	8ccL	.
.	.	8g	.
4F 4A 4e-	8ee-L	8a	.
.	[8ddJ	[8b-J	.
4BB- 4B-	8b-] 8ddL]	4r	.
.	8fJ	.	.
4AA- 4A-	4r	4dd 4ff	.
=94	=94	=94	=94
4GG 4G	4ee- 4bb-	8ee-L	.
.	.	8b-	.
4EE- 4E-	4ee- 4gg	8ee-	.
.	.	8gJ	.
4DD 4D	8b-	8b-	.
.	4r	4dd 4ff	.
4F 4B- 4d	.	.	.
.	8f	8f	.
=95	=95	=95	=95
4FF 4F	4ee-	8ccL	.
.	.	8g	.
4F 4A 4e-	8ee-L	8a	.
.	[8ddJ	[8b-J	.
4BB- 4B-	2r	4.b-] 4.dd]	.
4FF 4F	.	.	.
.	.	8ee- [8bb-	.
=96	=96	=96	=96
4GG 4G	4bb-]	8ee-L	.
.	.	8b-	.
4EE- 4E-	4gg	8ee-	.
.	.	8gJ	.
4DD 4D	8b-	8b-	.
.	4r	4dd 4ff	.
4F 4B- 4d	.	.	.
.	8f	8f	.
=97	=97	=97	=97
4FF 4F	4ee-	8ccL	.
.	.	8g	.
4F 4A 4e-	8ee-L	8a	.
.	[8ddJ	[8b-J	.
4BB- 4B-	8b-] 8ddL]	4r	.
.	8fJ	.	.
4AA- 4A-	4r	4dd 4ff	.
=98	=98	=98	=98
4GG 4G	4ee- 4bb-	8ee-L	.
.	.	8b-	.
4EE- 4E-	4ee- 4gg	8ee-	.
.	.	8gJ	.
4DD 4D	8b-	8b-	.
.	4r	4dd 4ff	.
4F 4B- 4d	.	.	.
.	8f	8f	.
*	*v	*v	*
=99	=99	=99
*>E1	*>E1	*>E1
*	*^	*
4FF 4F	4ee-	8ccL	.
.	.	8g	.
4F 4A 4e-	8ee-L	8a	.
.	[8ddJ	[8b-J	.
4BB- 4B-	8b-] 8ddL]	2r	.
.	8g	.	.
4F 4A	8f	.	.
.	8e-J	.	.
*	*v	*v	*
=100:|!	=100:|!	=100:|!
*>E2	*>E2	*>E2
*	*^	*
4FF 4F	4ee-	8ccL	.
.	.	8g	.
4F 4A 4e-	8ee-L	8a	.
.	[8ddJ	[8b-J	.
4BB- 4B-	4r	4b-] 4dd]	.
4r	8dd'L	8b-L	.
.	8ee-J	8ccJ	.
=101	=101	=101	=101
1r	4ff	4dd	.
.	2gg	2ee-	.
.	4gg-	4ee-	.
=102	=102	=102	=102
1r	8gg-L	8ee-	.
.	8ff	4.dd	.
.	8bb-	.	.
.	[8ff [8bb- [8dddJ	.	.
.	8ff] 8bb-] 8dddL]	4f	.
.	8dd 8bb-J	.	.
.	4ee- 4aa 4ccc	4F 4f	.
=103	=103	=103	=103
1r	4dd 4bb-	4B- 4f	.
.	8ffL	4dd	.
.	8bb-J	.	.
.	8ddL	4b-	.
.	8ff	.	.
.	8b-	4f	.
.	8ddJ	.	.
=104	=104	=104	=104
2.r	4f	4d	.
.	8fL	8dL	.
.	8enJ	8c#J	.
.	4f	4d	.
8B-L	8dL	4r	.
8cnJ	8e-J	.	.
*	*v	*v	*
=105	=105	=105
4d	4f	.
2e-	2g	.
4e-	4g-	.
=106	=106	=106
8e-	8g-L	.
4.d	8f	.
.	8b-	.
.	[8f [8b- [8ddJ	.
4F	8f] 8b-] 8ddL]	.
.	8d 8b-J	.
4FF 4F	4e- 4a 4cc	.
=107	=107	=107
*^	*^	*
*	*^	*	*^	*
4r	[1BB- [1B-	4F	4r	4d	1b-	.
*	*	*	*	*v	*v	*
(4a	.	4r	8ffL	4b- 4ff	.
.	.	.	8bb-J	.	.
4g	.	4r	8eenL	4b- 4een	.
.	.	.	8bb-	.	.
4g-)	.	4r	8ee-	4b- 4ee-	.
.	.	.	8bb-J	.	.
*	*v	*v	*	*	*
*	*	*v	*v	*
=108	=108	=108	=108
4f	4BB-] 4B-]	4b- 4dd 4bb-	.
4r	4r	4r	.
4BBB-^ 4BB-^	4r	4b-^ 4dd^ 4ff^ 4bb-^	p
4r	4r	4r	.
*v	*v	*	*
==	==	==
*-	*-	*-
!!!ENC: Craig Stuart Sapp
!!!END: 2005/02/04/
